X:1
T:With the Sword of the Lord
T:With the Sword of the Lord
T:Fred S. Shepard
T:H. D. Spear, 1909
T:Public Domain Courtesy of the Cyber Hymnal™
T:Public Domain Courtesy of the Cyber Hymnal™
C:Fred S. Shepard
Z:Public Domain
Z:Courtesy of the Cyber Hymnal™
%%score ( 1 2 ) ( 3 4 )
L:1/8
Q:1/4=102
M:4/4
K:Ab
V:1 treble 
V:2 treble 
V:3 bass 
V:4 bass 
V:1
 [Ec][Ec] | [Ec]2 [Ec]2 [EB]2 [EB][EB] | [EA]2 [EA]2 [DG]2 [DF][DF] | [CE]2 [Ed]2 [Ec]2 [EB]2 | %4
w: 1.~See the|hosts of ill, camped a-|long the hill And with-|in the vale be-|
w: 2.~O how|great and strong are the|hosts of wrong Clad in|all their pomp and|
w: 3.~Sa- tan|strong may be, but will|sure- ly flee If we|fal- ter not nor|
w: 4.~For- ward,|then, we’ll go a- nd|meet the foe In the|strength of Christ, our|
 [Ec]6 [Ec][Ec] | [Ec]2 [Ec]2 [EB]2 [EB][EB] | [EA]2 [EA]2 [EG]2 [DF][DF] | %7
w: low! See their|bold ar- ray! shall we|win the day, As we|
w: pride! But we|need not fear, when their|ranks draw near, For the|
w: fail; For the|cause of right and of|God we fight, And we|
w: king; When the|day is done, and the|fight is won, Then the|
 [CE]2 [Ed]2 [Ec]2 [EB]2 | [EA]6 ||"^Refrain" EE | [EA]2 [EA]>[EA] [EA]2 GA | B3 G E2 EE | %12
w: march a- gainst the|foe?||||
w: Lord is on our|side.||||
w: must at last pre-|vail.|With the|sword of the Lord and of|Gid- e- on, With the|
w: vic- tor’s song we’ll|sing.||||
 [EB]2 [EB]>[EB] [EB]2 AB | c3 A F2 FF | [Fc]2 [Fc]>[Gc] [Ac]2 [AB][Ac] | %15
w: |||
w: |||
w: sword of the Lord and of|Gid- e- on, With the|sword of the Lord and of|
w: |||
 [Ad]3 [Ad] [Ad]2 [A=d][Ad] | [Ae][Ae] [Ae]2 [Ac]2 [EB]2 | [EA]6 |] %18
w: |||
w: |||
w: Gid- e- on, Smite the|en- e- my till he|flee.|
w: |||
V:2
 x2 | x8 | x8 | x8 | x8 | x8 | x8 | x8 | x6 || EE | x6 GA | B3 G E2 EE | x6 AB | c3 A F2 FF | x8 | %15
 x8 | x8 | x6 |] %18
V:3
 A,A, | A,2 A,2 [E,G,]2 [E,G,][E,G,] | [C,A,]2 [C,A,]2 [D,A,]2 [D,A,][D,A,] | %3
 [E,A,]2 [E,B,]2 [E,A,]2 [E,G,]2 | A,6 A,A, | A,2 A,2 [E,G,]2 [E,G,][E,G,] | %6
 [C,A,]2 [C,A,]2 [D,A,]2 [D,A,][D,A,] | [E,A,]2 [E,G,]2 [D,A,]2 [E,D]2 | [A,,C]6 || [A,C][A,C] | %10
 [A,C]2 [A,C]>[A,C] [A,C]2 G,A, | B,3 G, E,2 [E,G,][E,G,] | [E,G,]2 [E,G,]>[E,G,] [E,G,]2 A,B, | %13
 C3 A, F,2 [F,A,][F,A,] | [F,A,]2 [F,A,]>[F,B,] [F,C]2 [F,D][F,C] | %15
 [D,F]3 [D,F] [D,F]2 [F,=B,][F,B,] | [E,C][E,C] [E,C]2 [E,E]2 [E,D]2 | [A,,C]6 |] %18
V:4
 A,A, | A,2 A,2 x4 | x8 | x8 | A,6 A,A, | A,2 A,2 x4 | x8 | x8 | x6 || x2 | x6 G,A, | %11
 B,3 G, E,2 x2 | x6 A,B, | C3 A, F,2 x2 | x8 | x8 | x8 | x6 |] %18

